.config/color-calibration/original.cal
CAL    

DESCRIPTOR "Argyll Device Calibration Curves"
ORIGINATOR "Argyll synthcal"
CREATED "Wed Feb  8 10:33:35 2017"
DEVICE_CLASS "DISPLAY"
COLOR_REP "RGB"

NUMBER_OF_FIELDS 4
BEGIN_DATA_FORMAT
RGB_I RGB_R RGB_G RGB_B 
END_DATA_FORMAT

NUMBER_OF_SETS 256
BEGIN_DATA
0.00000 0.00000 0.00000 0.00000 
0.00392157 0.00390631 0.00390631 0.00390631 
0.00784314 0.00781262 0.00781262 0.00781262 
0.0117647 0.0117189 0.0117189 0.0117189 
0.0156863 0.0156252 0.0156252 0.0156252 
0.0196078 0.0195315 0.0195315 0.0195315 
0.0235294 0.0234379 0.0234379 0.0234379 
0.0274510 0.0273442 0.0273442 0.0273442 
0.0313725 0.0312505 0.0312505 0.0312505 
0.0352941 0.0351568 0.0351568 0.0351568 
0.0392157 0.0390631 0.0390631 0.0390631 
0.0431373 0.0429694 0.0429694 0.0429694 
0.0470588 0.0468757 0.0468757 0.0468757 
0.0509804 0.0507820 0.0507820 0.0507820 
0.0549020 0.0546883 0.0546883 0.0546883 
0.0588235 0.0585946 0.0585946 0.0585946 
0.0627451 0.0625010 0.0625010 0.0625010 
0.0666667 0.0664073 0.0664073 0.0664073 
0.0705882 0.0703136 0.0703136 0.0703136 
0.0745098 0.0742199 0.0742199 0.0742199 
0.0784314 0.0781262 0.0781262 0.0781262 
0.0823529 0.0820325 0.0820325 0.0820325 
0.0862745 0.0859388 0.0859388 0.0859388 
0.0901961 0.0898451 0.0898451 0.0898451 
0.0941176 0.0937514 0.0937514 0.0937514 
0.0980392 0.0976577 0.0976577 0.0976577 
0.101961 0.101564 0.101564 0.101564 
0.105882 0.105470 0.105470 0.105470 
0.109804 0.109377 0.109377 0.109377 
0.113725 0.113283 0.113283 0.113283 
0.117647 0.117189 0.117189 0.117189 
0.121569 0.121096 0.121096 0.121096 
0.125490 0.125002 0.125002 0.125002 
0.129412 0.128908 0.128908 0.128908 
0.133333 0.132815 0.132815 0.132815 
0.137255 0.136721 0.136721 0.136721 
0.141176 0.140627 0.140627 0.140627 
0.145098 0.144533 0.144533 0.144533 
0.149020 0.148440 0.148440 0.148440 
0.152941 0.152346 0.152346 0.152346 
0.156863 0.156252 0.156252 0.156252 
0.160784 0.160159 0.160159 0.160159 
0.164706 0.164065 0.164065 0.164065 
0.168627 0.167971 0.167971 0.167971 
0.172549 0.171878 0.171878 0.171878 
0.176471 0.175784 0.175784 0.175784 
0.180392 0.179690 0.179690 0.179690 
0.184314 0.183597 0.183597 0.183597 
0.188235 0.187503 0.187503 0.187503 
0.192157 0.191409 0.191409 0.191409 
0.196078 0.195315 0.195315 0.195315 
0.200000 0.199222 0.199222 0.199222 
0.203922 0.203128 0.203128 0.203128 
0.207843 0.207034 0.207034 0.207034 
0.211765 0.210941 0.210941 0.210941 
0.215686 0.214847 0.214847 0.214847 
0.219608 0.218753 0.218753 0.218753 
0.223529 0.222660 0.222660 0.222660 
0.227451 0.226566 0.226566 0.226566 
0.231373 0.230472 0.230472 0.230472 
0.235294 0.234379 0.234379 0.234379 
0.239216 0.238285 0.238285 0.238285 
0.243137 0.242191 0.242191 0.242191 
0.247059 0.246098 0.246098 0.246098 
0.250980 0.250004 0.250004 0.250004 
0.254902 0.253910 0.253910 0.253910 
0.258824 0.257816 0.257816 0.257816 
0.262745 0.261723 0.261723 0.261723 
0.266667 0.265629 0.265629 0.265629 
0.270588 0.269535 0.269535 0.269535 
0.274510 0.273442 0.273442 0.273442 
0.278431 0.277348 0.277348 0.277348 
0.282353 0.281254 0.281254 0.281254 
0.286275 0.285161 0.285161 0.285161 
0.290196 0.289067 0.289067 0.289067 
0.294118 0.292973 0.292973 0.292973 
0.298039 0.296880 0.296880 0.296880 
0.301961 0.300786 0.300786 0.300786 
0.305882 0.304692 0.304692 0.304692 
0.309804 0.308598 0.308598 0.308598 
0.313725 0.312505 0.312505 0.312505 
0.317647 0.316411 0.316411 0.316411 
0.321569 0.320317 0.320317 0.320317 
0.325490 0.324224 0.324224 0.324224 
0.329412 0.328130 0.328130 0.328130 
0.333333 0.332036 0.332036 0.332036 
0.337255 0.335943 0.335943 0.335943 
0.341176 0.339849 0.339849 0.339849 
0.345098 0.343755 0.343755 0.343755 
0.349020 0.347662 0.347662 0.347662 
0.352941 0.351568 0.351568 0.351568 
0.356863 0.355474 0.355474 0.355474 
0.360784 0.359380 0.359380 0.359380 
0.364706 0.363287 0.363287 0.363287 
0.368627 0.367193 0.367193 0.367193 
0.372549 0.371099 0.371099 0.371099 
0.376471 0.375006 0.375006 0.375006 
0.380392 0.378912 0.378912 0.378912 
0.384314 0.382818 0.382818 0.382818 
0.388235 0.386725 0.386725 0.386725 
0.392157 0.390631 0.390631 0.390631 
0.396078 0.394537 0.394537 0.394537 
0.400000 0.398444 0.398444 0.398444 
0.403922 0.402350 0.402350 0.402350 
0.407843 0.406256 0.406256 0.406256 
0.411765 0.410163 0.410163 0.410163 
0.415686 0.414069 0.414069 0.414069 
0.419608 0.417975 0.417975 0.417975 
0.423529 0.421881 0.421881 0.421881 
0.427451 0.425788 0.425788 0.425788 
0.431373 0.429694 0.429694 0.429694 
0.435294 0.433600 0.433600 0.433600 
0.439216 0.437507 0.437507 0.437507 
0.443137 0.441413 0.441413 0.441413 
0.447059 0.445319 0.445319 0.445319 
0.450980 0.449226 0.449226 0.449226 
0.454902 0.453132 0.453132 0.453132 
0.458824 0.457038 0.457038 0.457038 
0.462745 0.460945 0.460945 0.460945 
0.466667 0.464851 0.464851 0.464851 
0.470588 0.468757 0.468757 0.468757 
0.474510 0.472663 0.472663 0.472663 
0.478431 0.476570 0.476570 0.476570 
0.482353 0.480476 0.480476 0.480476 
0.486275 0.484382 0.484382 0.484382 
0.490196 0.488289 0.488289 0.488289 
0.494118 0.492195 0.492195 0.492195 
0.498039 0.496101 0.496101 0.496101 
0.501961 0.500008 0.500008 0.500008 
0.505882 0.503914 0.503914 0.503914 
0.509804 0.507820 0.507820 0.507820 
0.513725 0.511727 0.511727 0.511727 
0.517647 0.515633 0.515633 0.515633 
0.521569 0.519539 0.519539 0.519539 
0.525490 0.523445 0.523445 0.523445 
0.529412 0.527352 0.527352 0.527352 
0.533333 0.531258 0.531258 0.531258 
0.537255 0.535164 0.535164 0.535164 
0.541176 0.539071 0.539071 0.539071 
0.545098 0.542977 0.542977 0.542977 
0.549020 0.546883 0.546883 0.546883 
0.552941 0.550790 0.550790 0.550790 
0.556863 0.554696 0.554696 0.554696 
0.560784 0.558602 0.558602 0.558602 
0.564706 0.562509 0.562509 0.562509 
0.568627 0.566415 0.566415 0.566415 
0.572549 0.570321 0.570321 0.570321 
0.576471 0.574228 0.574228 0.574228 
0.580392 0.578134 0.578134 0.578134 
0.584314 0.582040 0.582040 0.582040 
0.588235 0.585946 0.585946 0.585946 
0.592157 0.589853 0.589853 0.589853 
0.596078 0.593759 0.593759 0.593759 
0.600000 0.597665 0.597665 0.597665 
0.603922 0.601572 0.601572 0.601572 
0.607843 0.605478 0.605478 0.605478 
0.611765 0.609384 0.609384 0.609384 
0.615686 0.613291 0.613291 0.613291 
0.619608 0.617197 0.617197 0.617197 
0.623529 0.621103 0.621103 0.621103 
0.627451 0.625010 0.625010 0.625010 
0.631373 0.628916 0.628916 0.628916 
0.635294 0.632822 0.632822 0.632822 
0.639216 0.636728 0.636728 0.636728 
0.643137 0.640635 0.640635 0.640635 
0.647059 0.644541 0.644541 0.644541 
0.650980 0.648447 0.648447 0.648447 
0.654902 0.652354 0.652354 0.652354 
0.658824 0.656260 0.656260 0.656260 
0.662745 0.660166 0.660166 0.660166 
0.666667 0.664073 0.664073 0.664073 
0.670588 0.667979 0.667979 0.667979 
0.674510 0.671885 0.671885 0.671885 
0.678431 0.675792 0.675792 0.675792 
0.682353 0.679698 0.679698 0.679698 
0.686275 0.683604 0.683604 0.683604 
0.690196 0.687510 0.687510 0.687510 
0.694118 0.691417 0.691417 0.691417 
0.698039 0.695323 0.695323 0.695323 
0.701961 0.699229 0.699229 0.699229 
0.705882 0.703136 0.703136 0.703136 
0.709804 0.707042 0.707042 0.707042 
0.713725 0.710948 0.710948 0.710948 
0.717647 0.714855 0.714855 0.714855 
0.721569 0.718761 0.718761 0.718761 
0.725490 0.722667 0.722667 0.722667 
0.729412 0.726574 0.726574 0.726574 
0.733333 0.730480 0.730480 0.730480 
0.737255 0.734386 0.734386 0.734386 
0.741176 0.738293 0.738293 0.738293 
0.745098 0.742199 0.742199 0.742199 
0.749020 0.746105 0.746105 0.746105 
0.752941 0.750011 0.750011 0.750011 
0.756863 0.753918 0.753918 0.753918 
0.760784 0.757824 0.757824 0.757824 
0.764706 0.761730 0.761730 0.761730 
0.768627 0.765637 0.765637 0.765637 
0.772549 0.769543 0.769543 0.769543 
0.776471 0.773449 0.773449 0.773449 
0.780392 0.777356 0.777356 0.777356 
0.784314 0.781262 0.781262 0.781262 
0.788235 0.785168 0.785168 0.785168 
0.792157 0.789075 0.789075 0.789075 
0.796078 0.792981 0.792981 0.792981 
0.800000 0.796887 0.796887 0.796887 
0.803922 0.800793 0.800793 0.800793 
0.807843 0.804700 0.804700 0.804700 
0.811765 0.808606 0.808606 0.808606 
0.815686 0.812512 0.812512 0.812512 
0.819608 0.816419 0.816419 0.816419 
0.823529 0.820325 0.820325 0.820325 
0.827451 0.824231 0.824231 0.824231 
0.831373 0.828138 0.828138 0.828138 
0.835294 0.832044 0.832044 0.832044 
0.839216 0.835950 0.835950 0.835950 
0.843137 0.839857 0.839857 0.839857 
0.847059 0.843763 0.843763 0.843763 
0.850980 0.847669 0.847669 0.847669 
0.854902 0.851575 0.851575 0.851575 
0.858824 0.855482 0.855482 0.855482 
0.862745 0.859388 0.859388 0.859388 
0.866667 0.863294 0.863294 0.863294 
0.870588 0.867201 0.867201 0.867201 
0.874510 0.871107 0.871107 0.871107 
0.878431 0.875013 0.875013 0.875013 
0.882353 0.878920 0.878920 0.878920 
0.886275 0.882826 0.882826 0.882826 
0.890196 0.886732 0.886732 0.886732 
0.894118 0.890639 0.890639 0.890639 
0.898039 0.894545 0.894545 0.894545 
0.901961 0.898451 0.898451 0.898451 
0.905882 0.902358 0.902358 0.902358 
0.909804 0.906264 0.906264 0.906264 
0.913725 0.910170 0.910170 0.910170 
0.917647 0.914076 0.914076 0.914076 
0.921569 0.917983 0.917983 0.917983 
0.925490 0.921889 0.921889 0.921889 
0.929412 0.925795 0.925795 0.925795 
0.933333 0.929702 0.929702 0.929702 
0.937255 0.933608 0.933608 0.933608 
0.941176 0.937514 0.937514 0.937514 
0.945098 0.941421 0.941421 0.941421 
0.949020 0.945327 0.945327 0.945327 
0.952941 0.949233 0.949233 0.949233 
0.956863 0.953140 0.953140 0.953140 
0.960784 0.957046 0.957046 0.957046 
0.964706 0.960952 0.960952 0.960952 
0.968627 0.964858 0.964858 0.964858 
0.972549 0.968765 0.968765 0.968765 
0.976471 0.972671 0.972671 0.972671 
0.980392 0.976577 0.976577 0.976577 
0.984314 0.980484 0.980484 0.980484 
0.988235 0.984390 0.984390 0.984390 
0.992157 0.988296 0.988296 0.988296 
0.996078 0.992203 0.992203 0.992203 
1.000000 0.996109 0.996109 0.996109 
END_DATA
